static/img/tezos-logo.svg

<svg width="84" height="29" viewBox="0 0 84 29" fill="none" xmlns="http://www.w3.org/2000/svg">
<path d="M41.5693 6.5558H36.3912V20.5441H35.1196V6.5558H29.9546V5.48279H41.5693V6.5558ZM46.3542 20.7666C45.3972 20.7666 44.532 20.531 43.7717 20.0599C43.0113 19.5889 42.3952 18.9346 41.9757 18.0971C41.5431 17.2597 41.3334 16.3175 41.3334 15.2838V14.8389C41.3334 13.7659 41.5431 12.7975 41.9626 11.9339C42.3821 11.0703 42.9589 10.3898 43.7061 9.90566C44.4533 9.4215 45.2661 9.15979 46.1313 9.15979C47.4947 9.15979 48.5696 9.61778 49.3693 10.5468C50.169 11.4759 50.5622 12.7452 50.5622 14.3547V15.0482H42.5525V15.2838C42.5525 16.5531 42.9196 17.613 43.6406 18.4504C44.3747 19.301 45.2923 19.7197 46.3935 19.7197C47.0621 19.7197 47.6389 19.602 48.1501 19.3533C48.6614 19.1178 49.1202 18.7252 49.5397 18.1887L50.3132 18.7776C49.4217 20.0992 48.0977 20.7666 46.3542 20.7666ZM46.1313 10.2066C45.2006 10.2066 44.414 10.5468 43.7717 11.2273C43.1293 11.9077 42.7491 12.8237 42.6049 13.9752H49.33V13.8444C49.2906 12.7714 48.9891 11.8946 48.4123 11.2142C47.8355 10.5338 47.0752 10.2066 46.1313 10.2066ZM54.2328 19.5104H61.5215V20.5572H52.699V19.6412L59.5027 10.4291H52.9088V9.35608H61.0627V10.2851L54.2328 19.5104ZM63.3044 14.7865C63.3044 13.7135 63.5141 12.7452 63.9336 11.8816C64.3531 11.0179 64.943 10.3506 65.7034 9.86641C66.4637 9.38225 67.3289 9.14671 68.299 9.14671C69.7935 9.14671 70.9995 9.67013 71.9303 10.717C72.861 11.7638 73.3198 13.1508 73.3198 14.8781V15.1398C73.3198 16.2259 73.1101 17.1942 72.6906 18.0579C72.2711 18.9215 71.6812 19.5889 70.9209 20.0599C70.1605 20.531 69.2953 20.7666 68.3252 20.7666C66.8439 20.7666 65.6247 20.2431 64.694 19.1963C63.7632 18.1495 63.3044 16.7624 63.3044 15.0351V14.7865ZM64.5498 15.1267C64.5498 16.4615 64.9037 17.5606 65.5854 18.4243C66.2802 19.2879 67.1847 19.7066 68.3121 19.7066C69.4264 19.7066 70.344 19.2748 71.0388 18.4243C71.7336 17.5606 72.0745 16.4353 72.0745 15.0221V14.7865C72.0745 13.936 71.9172 13.1508 71.6025 12.4311C71.2879 11.7245 70.8422 11.1749 70.2654 10.7824C69.6886 10.3898 69.0331 10.1935 68.299 10.1935C67.1978 10.1935 66.2933 10.6254 65.5854 11.489C64.8906 12.3526 64.5367 13.4911 64.5367 14.8912L64.5498 15.1267ZM82.6012 17.7046C82.6012 17.0896 82.3521 16.5923 81.8539 16.2259C81.3558 15.8595 80.6217 15.5586 79.6123 15.3492C78.6028 15.1398 77.8425 14.8912 77.2919 14.6295C76.7413 14.3547 76.335 14.0276 76.0728 13.635C75.8106 13.2424 75.6664 12.7714 75.6664 12.2087C75.6664 11.3189 76.0334 10.5992 76.7807 10.0234C77.5148 9.44767 78.4718 9.15979 79.6254 9.15979C80.8707 9.15979 81.8802 9.47385 82.6405 10.0889C83.4008 10.7039 83.781 11.5152 83.781 12.5097H82.5356C82.5356 11.8554 82.2603 11.3058 81.7097 10.874C81.1591 10.4422 80.4644 10.2197 79.6254 10.2197C78.8126 10.2197 78.1571 10.4029 77.659 10.7562C77.1608 11.1226 76.9118 11.5937 76.9118 12.1694C76.9118 12.7321 77.1215 13.1639 77.5279 13.4649C77.9343 13.7659 78.6946 14.0537 79.7827 14.3155C80.8707 14.5772 81.6835 14.8389 82.2341 15.1267C82.7716 15.4146 83.178 15.7679 83.4402 16.1736C83.7023 16.5792 83.8334 17.0765 83.8334 17.6522C83.8334 18.5944 83.4533 19.3533 82.6929 19.916C81.9326 20.4787 80.9363 20.7666 79.704 20.7666C78.3931 20.7666 77.3312 20.4525 76.5316 19.8244C75.7188 19.1963 75.3124 18.3981 75.3124 17.4298H76.5578C76.6103 18.1495 76.9118 18.7122 77.4755 19.1178C78.0392 19.5234 78.7864 19.7197 79.7171 19.7197C80.5823 19.7197 81.2771 19.5234 81.8146 19.1571C82.339 18.7645 82.6012 18.2803 82.6012 17.7046ZM20.7912 21.3947C20.4897 16.0689 13.7778 13.6481 13.1354 13.3995C13.1092 13.3864 13.1092 13.3602 13.1223 13.334L20.044 6.39877V5.6529C20.044 5.53513 19.9391 5.43045 19.8211 5.43045H7.06587V0L2.35966 0.981407V1.68802H2.62184C2.62184 1.68802 3.77545 1.68802 3.77545 2.83954V5.41736H0.131092C0.0655461 5.41736 0 5.48279 0 5.54822V7.1839H3.78856V16.0689C3.78856 18.8561 5.58453 20.7927 8.73074 20.531C9.39931 20.4787 10.0154 20.217 10.5398 19.8768C10.7758 19.7197 10.92 19.4711 10.92 19.1832V18.3065C9.89746 18.9869 9.03225 18.9477 9.03225 18.9477C7.03965 18.9477 7.07898 16.4222 7.07898 16.4222V7.1839H16.2554L9.64838 13.8313C9.63527 14.708 9.62216 15.3885 9.62216 15.4015C9.62216 15.4277 9.63527 15.4408 9.66149 15.4408C15.7179 16.4615 17.3566 20.374 17.3566 21.5124C17.3566 21.5124 18.0121 27.0476 12.4669 27.427C12.4669 27.427 8.83561 27.5841 8.19326 26.1316C8.16704 26.0792 8.19326 26.0269 8.2457 26.0007C8.84872 25.7259 9.25511 25.1894 9.25511 24.4697C9.25511 23.3967 8.59964 22.52 7.22318 22.52C6.10889 22.52 5.19125 23.3967 5.19125 24.4697C5.19125 24.4697 4.66688 29.1281 12.4538 28.9973C21.3418 28.8403 20.7912 21.3947 20.7912 21.3947Z" fill="#030405"/>
</svg>

<svg xmlns="http://www.w3.org/2000/svg" width="84" height="29" fill="none"><path fill="#030405" d="M41.57 6.556H36.39v13.988H35.12V6.556h-5.165V5.483h11.614v1.073Zm4.784 14.21c-.957 0-1.822-.235-2.582-.706a4.822 4.822 0 0 1-1.796-1.963c-.433-.837-.643-1.78-.643-2.813v-.445c0-1.073.21-2.042.63-2.905.42-.864.996-1.544 1.743-2.028.747-.485 1.56-.746 2.425-.746 1.364 0 2.439.458 3.238 1.387.8.929 1.193 2.198 1.193 3.808v.693h-8.01v.236c0 1.27.368 2.329 1.089 3.166.734.851 1.651 1.27 2.753 1.27.668 0 1.245-.118 1.756-.367.511-.235.97-.628 1.39-1.164l.773.589c-.891 1.321-2.215 1.989-3.959 1.989Zm-.223-10.56c-.93 0-1.717.34-2.36 1.021-.642.68-1.022 1.597-1.166 2.748h6.725v-.13c-.04-1.074-.34-1.95-.918-2.63-.576-.681-1.337-1.008-2.28-1.008Zm8.102 9.304h7.289v1.047h-8.823v-.916l6.804-9.212h-6.594V9.356h8.154v.93l-6.83 9.224Zm9.071-4.724c0-1.072.21-2.04.63-2.904.42-.864 1.009-1.531 1.77-2.016.76-.484 1.625-.72 2.595-.72 1.494 0 2.7.524 3.631 1.571.931 1.047 1.39 2.434 1.39 4.161v.262c0 1.086-.21 2.054-.63 2.918-.419.864-1.009 1.53-1.77 2.002-.76.471-1.625.707-2.595.707-1.481 0-2.7-.524-3.631-1.57-.93-1.047-1.39-2.435-1.39-4.162v-.248Zm1.246.34c0 1.336.354 2.435 1.035 3.298.695.864 1.6 1.283 2.727 1.283 1.114 0 2.032-.432 2.727-1.283.695-.863 1.035-1.989 1.035-3.402v-.236c0-.85-.157-1.635-.471-2.355-.315-.706-.76-1.256-1.338-1.649a3.413 3.413 0 0 0-1.966-.588c-1.101 0-2.006.431-2.714 1.295-.694.864-1.048 2.002-1.048 3.402l.013.236ZM82.6 17.706c0-.615-.249-1.113-.747-1.48-.498-.366-1.232-.666-2.242-.876-1.01-.21-1.77-.458-2.32-.72-.55-.274-.957-.601-1.22-.994-.261-.393-.406-.864-.406-1.426 0-.89.367-1.61 1.115-2.186.734-.575 1.69-.863 2.844-.863 1.246 0 2.255.314 3.016.929.76.615 1.14 1.426 1.14 2.42h-1.245c0-.654-.276-1.203-.826-1.635-.55-.432-1.246-.654-2.085-.654-.812 0-1.468.183-1.966.536-.498.367-.747.838-.747 1.413 0 .563.21.995.616 1.296.406.3 1.167.589 2.255.85 1.088.262 1.9.524 2.451.812.538.288.944.64 1.206 1.047.262.405.393.902.393 1.478 0 .942-.38 1.701-1.14 2.264-.76.563-1.757.85-2.989.85-1.31 0-2.373-.313-3.172-.942-.813-.628-1.22-1.426-1.22-2.394h1.246c.052.72.354 1.282.917 1.688.564.405 1.311.602 2.242.602.865 0 1.56-.197 2.098-.563.524-.392.786-.877.786-1.452Zm-61.81 3.69c-.301-5.326-7.013-7.747-7.656-7.995-.026-.014-.026-.04-.013-.066l6.922-6.935v-.746a.23.23 0 0 0-.223-.223H7.066V0L2.36.981v.707h.262s1.153 0 1.153 1.152v2.577H.131c-.065 0-.131.066-.131.131v1.636h3.789v8.885c0 2.787 1.796 4.724 4.942 4.462.668-.052 1.284-.314 1.809-.654a.823.823 0 0 0 .38-.694v-.877c-1.023.68-1.888.642-1.888.642-1.992 0-1.953-2.526-1.953-2.526V7.184h9.176L9.648 13.83c-.013.877-.026 1.558-.026 1.57 0 .027.013.04.04.04 6.056 1.02 7.695 4.933 7.695 6.071 0 0 .655 5.536-4.89 5.915 0 0-3.631.157-4.274-1.295-.026-.053 0-.105.053-.131.603-.275 1.01-.812 1.01-1.531 0-1.073-.656-1.95-2.033-1.95-1.114 0-2.032.877-2.032 1.95 0 0-.524 4.658 7.263 4.527 8.888-.157 8.337-7.602 8.337-7.602Z"/></svg>
